X: 16203
T: Green Tree, The
R: jig
M: 6/8
K: Dmajor
E|DFA f3|Bef f3|fed afd|fdB AFE|
DFA f3|Bef g3|fed cea|d3d z:|
|:e|d'af d3|fdB A3|BAG FAd|Beg fed|
d'af dfa|gfe Beg|fed cea|d3dz:|

